img/services/cleaning.svg

<svg width="119" height="122" viewBox="0 0 119 122" fill="none" xmlns="http://www.w3.org/2000/svg">
<path d="M109.984 44.352C106.854 41.2019 103.696 38.0724 100.562 34.9306C99.4643 33.8246 99.7428 32.8824 101.25 32.4441C104.613 31.4365 107.976 30.396 111.348 29.4293C112.474 29.1016 113.347 28.5527 113.355 27.2706C113.363 25.9884 112.511 25.4231 111.372 25.0954C108.05 24.1287 104.753 23.0473 101.41 22.1666C100.386 21.8922 100.05 21.3883 99.8453 20.4339C99.2063 17.501 98.4402 14.5926 97.7684 11.6638C97.494 10.4349 96.9779 9.51327 95.6056 9.50098C94.2334 9.48869 93.6967 10.4022 93.4182 11.6228C92.7505 14.5558 91.9476 17.4559 91.37 20.4011C91.1406 21.5686 90.5508 21.9454 89.539 22.2813C88.5272 22.6172 87.9005 22.2813 87.1755 21.5563C82.1084 16.4359 76.9923 11.373 71.9088 6.26903C68.6318 2.99202 64.7198 1.15281 58.5181 1.13232C55.241 1.13232 51.2554 3.00842 47.8883 6.39193C38.5242 15.7997 29.1383 25.191 19.7306 34.566C16.0808 38.2158 12.3573 41.7877 8.8427 45.5604C5.32811 49.333 4.10338 53.7775 4.79974 58.8363C5.36912 62.9777 7.43361 66.271 10.3993 69.077C10.8089 69.4579 11.4479 69.7119 11.1898 70.5557C9.46942 76.1881 8.38391 82.0253 5.35268 87.2234C3.83297 89.8205 2.37069 92.442 0.732186 94.9653C-0.320553 96.6038 -0.263277 97.2552 1.06801 98.5824C8.50409 106.029 15.9429 113.468 23.3844 120.899C24.7239 122.238 25.4326 122.341 27.0056 121.288C33.834 116.741 40.9902 112.686 47.323 107.393C47.9047 106.91 48.2324 106.902 48.8427 107.393C56.216 113.632 65.2277 113.276 72.0439 106.476C84.6986 93.8485 97.3397 81.2101 109.967 68.5609C117.123 61.4129 117.123 51.5286 109.984 44.352ZM91.706 25.9843C93.8852 25.6075 94.983 24.3704 95.2288 22.2363C95.2084 22.0324 95.2393 21.8267 95.3187 21.6378C95.3981 21.4489 95.5235 21.2829 95.6834 21.1548C95.8913 21.8283 96.0649 22.5119 96.2036 23.203C96.4085 24.5916 97.2114 25.3371 98.5345 25.6853C100.173 26.0949 101.75 26.6111 103.356 27.078L103.393 27.3975C102.053 27.8072 100.73 28.2864 99.3659 28.5568C97.3629 28.9664 96.1995 30.0069 95.9988 32.0755C95.9352 32.4643 95.8421 32.8477 95.7203 33.2224C95.5647 33.1692 95.4172 33.1446 95.4131 33.1159C95.3025 30.0355 93.4674 28.6756 90.641 28.2004C89.6393 28.0223 88.6853 27.6387 87.8391 27.0739C89.1062 26.6372 90.3973 26.2734 91.706 25.9843ZM28.7506 115.18C27.7019 115.799 26.6082 117.02 25.6456 116.921C24.6829 116.823 23.835 115.43 22.9748 114.57C17.1909 108.797 11.4111 103.021 5.6354 97.2429C5.16842 96.78 4.66451 96.4482 5.25027 95.6044C10.6655 87.9853 13.2749 79.2193 15.6138 70.3182C17.6333 62.6377 19.8862 55.0186 22.0449 47.3791C22.6102 45.3801 24.1873 44.2619 25.9815 44.5117C27.7757 44.7616 29.1315 46.2772 29.111 48.4564C28.4965 51.1272 27.8043 54.1543 27.1039 57.1815C26.4539 60.0079 25.7958 62.8356 25.1294 65.6648C24.8427 66.8937 24.7731 68.0447 26.0962 68.7124C27.3251 69.3391 28.2099 68.6592 29.0537 67.8153C38.6881 58.1673 48.3266 48.522 57.9692 38.8794C58.9523 37.8922 59.9804 37.1507 61.4755 37.5522C61.9625 37.6655 62.4135 37.8985 62.7877 38.23C63.1619 38.5616 63.4476 38.9811 63.6188 39.4509C63.79 39.9206 63.8414 40.4256 63.7683 40.9202C63.6952 41.4147 63.4999 41.8833 63.2001 42.2834C62.8837 42.6833 62.5358 43.0572 62.1597 43.4016C55.3326 50.2287 48.5055 57.0558 41.6784 63.8829C41.3417 64.195 41.023 64.5259 40.7239 64.8742C39.9374 65.8614 39.9457 66.8773 40.8591 67.7416C41.7726 68.6059 42.6943 68.5404 43.6282 67.8113C43.9778 67.5136 44.3101 67.1963 44.6236 66.8609L71.0567 40.4277C71.4389 40.0145 71.8496 39.6285 72.2856 39.2726C72.8692 38.8021 73.6088 38.569 74.3568 38.6199C75.1047 38.6708 75.8059 39.0019 76.3204 39.5471C76.8529 40.0715 77.1721 40.7747 77.2159 41.5208C77.2598 42.2669 77.0254 43.0028 76.558 43.586C76.2356 43.9808 75.8866 44.353 75.5134 44.7001C66.6273 53.5836 57.7439 62.4684 48.8632 71.3545C48.4495 71.7305 48.0847 72.1572 47.7777 72.6244C47.2329 73.546 47.4705 74.4103 48.2242 75.1067C48.5261 75.4293 48.9342 75.6323 49.3737 75.6782C49.8131 75.7241 50.2543 75.6099 50.6164 75.3565C51.073 75.0343 51.4945 74.665 51.8739 74.2547C58.2696 67.8645 64.6638 61.4743 71.0567 55.0842C71.4729 54.6352 71.9281 54.224 72.4167 53.8553C73.0265 53.4202 73.7758 53.2263 74.5201 53.311C75.2644 53.3957 75.951 53.7531 76.4474 54.3141C76.9307 54.8467 77.2181 55.5281 77.262 56.246C77.306 56.9639 77.1039 57.6753 76.6891 58.2629C76.3422 58.7003 75.9629 59.1111 75.5544 59.4917C68.8038 66.2506 62.0518 73.0053 55.2984 79.7559C54.9178 80.0967 54.5669 80.4695 54.2498 80.8701C53.9361 81.2511 53.7775 81.7363 53.8056 82.229C53.8336 82.7217 54.0463 83.1857 54.4013 83.5286C54.7144 83.9117 55.164 84.1583 55.6554 84.2164C56.1467 84.2745 56.6415 84.1395 57.0353 83.8399C57.4468 83.5358 57.8269 83.1914 58.1699 82.8118C63.0117 77.9782 67.8507 73.1405 72.687 68.2987C73.1423 67.7473 73.7165 67.3062 74.3666 67.0084C74.9591 66.7521 75.6207 66.7033 76.2444 66.8698C76.8681 67.0363 77.4173 67.4085 77.8033 67.9259C78.2144 68.3917 78.4573 68.9819 78.4929 69.6021C78.5286 70.2224 78.355 70.8365 77.9999 71.3463C77.6459 71.8506 77.2334 72.3112 76.771 72.7186C70.5283 78.9695 64.1382 85.0811 58.0675 91.4958C49.4442 100.716 39.5768 108.687 28.7506 115.18ZM107.984 64.5875C106.829 65.8819 105.56 67.0739 104.335 68.3028C92.5239 80.1109 80.713 91.9177 68.9021 103.723C64.2201 108.397 57.4695 108.917 52.5171 105.104C51.5708 104.374 51.3373 104.01 52.3573 103.006C61.8114 93.6805 71.2179 84.3083 80.5765 74.8896C84.2631 71.1661 83.157 66.0539 78.0613 63.0104C80.1913 61.1057 81.7807 58.9142 81.4817 55.8952C81.1827 52.8763 79.536 50.8241 76.4556 49.4682C77.5124 48.5056 78.5037 47.7191 79.3517 46.8138C82.1658 43.8399 82.1371 39.4406 79.3517 36.6223C78.0004 35.2739 76.1747 34.5084 74.2658 34.49C72.3568 34.4716 70.5167 35.2018 69.1397 36.524C68.6323 37.062 68.1589 37.6311 67.7223 38.2281C64.8304 32.5998 59.28 31.7191 55.069 35.9219C47.48 43.4999 39.8992 51.0862 32.3266 58.6807C31.9685 59.1112 31.6542 59.5764 31.3885 60.0693L30.8847 59.6965C31.6343 56.4195 32.3757 53.1057 33.1376 49.8123C33.8381 46.777 32.9205 44.2414 30.6553 42.2342C28.3901 40.227 25.7152 39.842 22.9175 40.8046C20.3983 41.673 18.7925 43.4958 18.0716 46.1052C16.3184 52.4257 14.5325 58.738 12.6891 65.292C10.514 63.3617 9.15976 60.6723 8.90421 57.7754C8.49458 53.8266 9.7808 50.4513 12.5908 47.6454C25.4531 34.7913 38.3126 21.9372 51.1694 9.08315C56.175 4.09801 63.4581 3.94645 68.4597 8.78413C73.4612 13.6218 78.2334 18.5128 83.1079 23.3873C83.268 23.579 83.4184 23.7786 83.5585 23.9853L79.6957 25.1323C78.6225 25.4518 77.8606 26.0499 77.8647 27.2665C77.8688 28.483 78.6512 29.0729 79.7162 29.3883C83.0874 30.3837 86.4463 31.4119 89.8339 32.3458C90.2267 32.4128 90.5873 32.6049 90.8619 32.8936C91.1365 33.1822 91.3105 33.5519 91.3578 33.9475C92.0091 36.9336 92.7833 39.8911 93.4551 42.8732C93.7295 44.1021 94.2743 45.0156 95.6302 45.0156C96.9861 45.0156 97.5432 44.0816 97.8053 42.865C98.0675 41.6484 98.3992 40.4359 98.6696 39.3586C101.947 42.5496 105.428 45.503 108.427 48.907C112.314 53.3269 111.982 60.1103 107.984 64.5875Z" fill="#5C5C5C"/>
<path d="M100.705 102.494C98.7715 102.51 96.9221 103.289 95.5607 104.663C94.1993 106.036 93.4364 107.893 93.4387 109.827C93.436 110.784 93.6223 111.732 93.9871 112.617C94.3518 113.502 94.8878 114.306 95.5642 114.983C96.2405 115.66 97.0439 116.197 97.9283 116.562C98.8127 116.928 99.7607 117.116 100.718 117.114C102.65 117.122 104.508 116.368 105.888 115.015C107.268 113.662 108.06 111.82 108.091 109.888C108.09 107.929 107.312 106.05 105.927 104.664C104.543 103.278 102.665 102.498 100.705 102.494ZM100.742 112.956C99.9205 112.948 99.1348 112.617 98.5548 112.034C97.9748 111.452 97.6468 110.665 97.6414 109.843C97.6367 109.023 97.9518 108.232 98.5201 107.641C99.0883 107.049 99.865 106.701 100.685 106.673C101.531 106.673 102.343 107.009 102.941 107.607C103.54 108.206 103.876 109.017 103.876 109.864C103.857 110.685 103.519 111.467 102.935 112.044C102.35 112.621 101.564 112.948 100.742 112.956Z" fill="#5C5C5C"/>
<path d="M15.7818 12.4996C16.5429 12.5509 17.3064 12.5509 18.0675 12.4996C18.8288 12.5406 19.5919 12.5406 20.3532 12.4996C20.8715 12.4825 21.3627 12.2635 21.7216 11.8892C22.0806 11.5149 22.2789 11.0151 22.2743 10.4965C22.305 10.2395 22.2826 9.97888 22.2084 9.73084C22.1343 9.4828 22.0102 9.25259 21.8435 9.05447C21.6769 8.85636 21.4714 8.69454 21.2397 8.57902C21.008 8.4635 20.7551 8.39675 20.4966 8.38288C18.8787 8.2477 17.2523 8.2477 15.6343 8.38288C14.557 8.4771 13.9384 9.29225 13.9507 10.4064C13.9301 10.6648 13.9615 10.9247 14.0429 11.1707C14.1243 11.4168 14.2542 11.6441 14.4249 11.8392C14.5955 12.0343 14.8034 12.1932 15.0365 12.3066C15.2695 12.4201 15.523 12.4857 15.7818 12.4996Z" fill="#5C5C5C"/>
<path d="M3.47662 12.5284C4.13202 12.5734 4.79555 12.5284 5.45914 12.5284C6.21913 12.5693 6.9808 12.5693 7.74079 12.5284C8.96967 12.4014 9.71521 11.6558 9.71521 10.4229C9.733 10.1644 9.69817 9.90501 9.61291 9.66037C9.52764 9.41572 9.39366 9.1909 9.21908 8.99948C9.0445 8.80805 8.83292 8.654 8.59714 8.54662C8.36136 8.43925 8.1063 8.38077 7.8473 8.37474C6.32717 8.25595 4.80013 8.25595 3.28001 8.37474C3.00842 8.37682 2.74039 8.43683 2.49385 8.55077C2.24732 8.66471 2.02789 8.82996 1.85031 9.03545C1.67274 9.24095 1.54108 9.48197 1.46409 9.74242C1.3871 10.0029 1.36658 10.2767 1.40389 10.5457C1.46533 11.7992 2.25184 12.4382 3.47662 12.5284Z" fill="#5C5C5C"/>
<path d="M9.77667 6.4166C9.77613 6.66136 9.82381 6.90381 9.91698 7.13015C10.0101 7.35648 10.147 7.56223 10.3197 7.73568C10.4924 7.90913 10.6975 8.04687 10.9234 8.14103C11.1494 8.2352 11.3916 8.28396 11.6364 8.28449C12.8243 8.37461 13.7091 7.80931 13.8115 6.62549C13.9406 4.99773 13.9406 3.36231 13.8115 1.73455C13.7296 0.546637 12.8612 -0.0677899 11.6856 0.0059428C11.4281 0.0036212 11.1728 0.0533099 10.9349 0.152027C10.6971 0.250744 10.4817 0.396448 10.3015 0.580429C10.1213 0.76441 9.98017 0.982875 9.88647 1.22272C9.79277 1.46256 9.74844 1.71886 9.75617 1.97624C9.71111 2.68899 9.75617 3.40583 9.75617 4.12268C9.75617 4.83952 9.69884 5.65879 9.77667 6.4166Z" fill="#5C5C5C"/>
<path d="M9.79307 19.074C9.8041 19.3187 9.86332 19.5588 9.96738 19.7805C10.0714 20.0022 10.2183 20.2012 10.3995 20.366C10.5807 20.5308 10.7926 20.6582 11.0231 20.7408C11.2537 20.8235 11.4983 20.8598 11.7429 20.8477C12.8612 20.8887 13.6641 20.3316 13.8115 19.2092C14.0368 17.5373 14.0368 15.8427 13.8115 14.1708C13.6641 13.0607 12.853 12.4996 11.7634 12.5323C11.269 12.5122 10.7865 12.6873 10.4201 13.02C10.0538 13.3526 9.83293 13.816 9.80537 14.3101C9.75822 15.074 9.75822 15.8401 9.80537 16.604C9.75108 17.4263 9.74697 18.2512 9.79307 19.074Z" fill="#5C5C5C"/>
<path d="M116.611 88.9358C116.019 88.9624 115.459 89.212 115.044 89.6345C114.628 90.0569 114.388 90.621 114.371 91.2133C114.394 91.8055 114.643 92.3663 115.067 92.7811C115.49 93.196 116.056 93.4337 116.648 93.4458C117.24 93.425 117.802 93.1782 118.218 92.7562C118.634 92.3342 118.872 91.7689 118.885 91.1764C118.858 90.5851 118.609 90.0257 118.187 89.6102C117.766 89.1947 117.203 88.9538 116.611 88.9358Z" fill="#5C5C5C"/>
</svg>

<svg xmlns="http://www.w3.org/2000/svg" width="119" height="122" fill="none"><path fill="#5C5C5C" d="M109.984 44.352c-3.13-3.15-6.288-6.28-9.422-9.421-1.098-1.106-.82-2.049.688-2.487 3.363-1.008 6.726-2.048 10.098-3.015 1.126-.327 1.999-.876 2.007-2.158.008-1.283-.844-1.848-1.983-2.176-3.322-.966-6.619-2.048-9.962-2.928-1.024-.275-1.36-.779-1.565-1.733-.639-2.933-1.405-5.841-2.077-8.77-.274-1.23-.79-2.15-2.162-2.163-1.373-.012-1.91.901-2.188 2.122-.668 2.933-1.47 5.833-2.048 8.778-.23 1.168-.82 1.544-1.831 1.88-1.012.336-1.639 0-2.364-.725-5.067-5.12-10.183-10.183-15.266-15.287-3.277-3.277-7.19-5.116-13.39-5.137-3.278 0-7.264 1.876-10.63 5.26A9793.33 9793.33 0 0 1 19.73 34.566c-3.65 3.65-7.374 7.222-10.888 10.994-3.515 3.773-4.74 8.218-4.043 13.276.57 4.142 2.634 7.435 5.6 10.241.409.38 1.048.635.79 1.479-1.72 5.632-2.806 11.47-5.837 16.667-1.52 2.597-2.982 5.219-4.62 7.742-1.054 1.639-.996 2.29.335 3.617 7.436 7.447 14.875 14.886 22.316 22.317 1.34 1.339 2.049 1.442 3.622.389 6.828-4.547 13.984-8.602 20.317-13.895.582-.483.91-.491 1.52 0 7.373 6.239 16.385 5.883 23.2-.917a27609.829 27609.829 0 0 0 37.924-37.915c7.156-7.148 7.156-17.032.017-24.209ZM91.706 25.984c2.18-.377 3.277-1.614 3.523-3.748a1.229 1.229 0 0 1 .454-1.081c.208.673.382 1.357.52 2.048.206 1.389 1.008 2.134 2.331 2.482 1.639.41 3.216.926 4.822 1.393l.037.32c-1.34.41-2.663.888-4.027 1.159-2.003.41-3.166 1.45-3.367 3.518a7.765 7.765 0 0 1-.279 1.147c-.155-.053-.303-.077-.307-.106-.11-3.08-1.946-4.44-4.772-4.916a7.372 7.372 0 0 1-2.802-1.126c1.267-.437 2.558-.8 3.867-1.09ZM28.751 115.18c-1.05.619-2.143 1.84-3.105 1.741-.963-.098-1.811-1.491-2.671-2.351a21299.437 21299.437 0 0 1-17.34-17.327c-.467-.463-.97-.795-.385-1.639 5.415-7.619 8.025-16.385 10.364-25.286 2.02-7.68 4.272-15.3 6.43-22.939.566-1.999 2.143-3.117 3.938-2.867 1.794.25 3.15 1.765 3.129 3.944-.614 2.671-1.307 5.698-2.007 8.725-.65 2.827-1.308 5.655-1.975 8.484-.286 1.229-.356 2.38.967 3.047 1.23.627 2.114-.053 2.958-.897 9.634-9.648 19.273-19.293 28.915-28.936.983-.987 2.011-1.728 3.506-1.327a3.006 3.006 0 0 1 1.725 4.731c-.316.4-.664.774-1.04 1.119l-20.482 20.48c-.336.313-.655.644-.954.992-.787.987-.778 2.003.135 2.868.914.864 1.835.798 2.77.07.349-.298.681-.616.995-.951l26.433-26.433c.382-.413.793-.8 1.229-1.155a2.978 2.978 0 0 1 4.034.274 3.018 3.018 0 0 1 .238 4.039 11.17 11.17 0 0 1-1.045 1.114c-8.886 8.884-17.77 17.768-26.65 26.654a6.654 6.654 0 0 0-1.085 1.27c-.545.922-.307 1.786.446 2.483a1.836 1.836 0 0 0 2.392.25 7.976 7.976 0 0 0 1.258-1.102c6.396-6.39 12.79-12.78 19.183-19.17.416-.45.871-.861 1.36-1.23a3.031 3.031 0 0 1 4.03.46 3.162 3.162 0 0 1 .242 3.948c-.347.437-.726.848-1.135 1.229-6.75 6.759-13.502 13.513-20.256 20.264-.38.34-.731.713-1.048 1.114a1.962 1.962 0 0 0 .151 2.659 1.91 1.91 0 0 0 2.634.31 7.684 7.684 0 0 0 1.135-1.027c4.842-4.834 9.68-9.671 14.517-14.513a4.736 4.736 0 0 1 1.68-1.29 2.867 2.867 0 0 1 3.436.917 2.773 2.773 0 0 1 .197 3.42 7.807 7.807 0 0 1-1.229 1.373c-6.243 6.25-12.633 12.362-18.703 18.777A135.713 135.713 0 0 1 28.75 115.18Zm79.233-50.593c-1.155 1.295-2.424 2.487-3.649 3.716a455007.255 455007.255 0 0 1-35.433 35.42c-4.682 4.674-11.433 5.194-16.385 1.381-.946-.73-1.18-1.094-.16-2.098a3964.353 3964.353 0 0 0 28.22-28.116c3.686-3.724 2.58-8.836-2.516-11.88 2.13-1.904 3.72-4.096 3.42-7.115-.298-3.019-1.945-5.07-5.025-6.427 1.056-.962 2.048-1.749 2.896-2.654 2.814-2.974 2.785-7.373 0-10.192a7.3 7.3 0 0 0-10.212-.098c-.508.538-.981 1.107-1.418 1.704C64.83 32.6 59.28 31.72 55.07 35.922 47.48 43.5 39.899 51.086 32.327 58.68c-.358.43-.673.895-.938 1.388l-.504-.373c.75-3.276 1.49-6.59 2.253-9.884.7-3.035-.218-5.57-2.483-7.578-2.265-2.007-4.94-2.392-7.738-1.43-2.519.869-4.125 2.692-4.845 5.301-1.754 6.32-3.54 12.633-5.383 19.187a11.388 11.388 0 0 1-3.785-7.517c-.41-3.948.877-7.324 3.687-10.13C25.453 34.791 38.313 21.937 51.169 9.083c5.006-4.985 12.29-5.137 17.29-.299 5.002 4.838 9.774 9.729 14.649 14.603.16.192.31.392.45.598l-3.862 1.147c-1.073.32-1.835.918-1.831 2.134.004 1.217.786 1.807 1.851 2.122 3.371.996 6.73 2.024 10.118 2.958a1.847 1.847 0 0 1 1.524 1.602c.651 2.986 1.425 5.943 2.097 8.925.275 1.23.82 2.143 2.175 2.143 1.356 0 1.913-.934 2.175-2.151.262-1.217.594-2.43.865-3.506 3.277 3.19 6.758 6.144 9.757 9.548 3.887 4.42 3.555 11.203-.443 15.68ZM100.705 102.494a7.327 7.327 0 0 0-7.266 7.333 7.267 7.267 0 0 0 7.279 7.287 7.342 7.342 0 0 0 7.373-7.226 7.396 7.396 0 0 0-7.386-7.394Zm.037 10.462a3.133 3.133 0 0 1-3.1-3.113 3.152 3.152 0 0 1 3.043-3.17 3.191 3.191 0 0 1 3.191 3.191 3.169 3.169 0 0 1-3.134 3.092ZM15.782 12.5c.76.05 1.524.05 2.285 0 .762.04 1.525.04 2.286 0a1.987 1.987 0 0 0 1.921-2.004 1.89 1.89 0 0 0-1.777-2.113 29.2 29.2 0 0 0-4.863 0c-1.077.094-1.696.91-1.683 2.023a1.942 1.942 0 0 0 1.83 2.094ZM3.477 12.528c.655.045 1.319 0 1.982 0 .76.041 1.522.041 2.282 0 1.229-.127 1.974-.872 1.974-2.105a1.917 1.917 0 0 0-1.868-2.048 29.312 29.312 0 0 0-4.567 0 1.909 1.909 0 0 0-1.876 2.17c.061 1.254.848 1.893 2.073 1.983ZM9.777 6.417a1.864 1.864 0 0 0 1.86 1.867c1.187.09 2.072-.475 2.175-1.659a30.93 30.93 0 0 0 0-4.89c-.082-1.188-.95-1.803-2.126-1.73a1.914 1.914 0 0 0-1.93 1.971c-.045.713 0 1.43 0 2.147 0 .717-.057 1.536.02 2.294ZM9.793 19.074a1.86 1.86 0 0 0 1.95 1.774c1.118.04 1.921-.516 2.069-1.639a18.864 18.864 0 0 0 0-5.038c-.148-1.11-.959-1.671-2.049-1.639a1.884 1.884 0 0 0-1.958 1.778c-.047.764-.047 1.53 0 2.294a20.276 20.276 0 0 0-.012 2.47ZM116.611 88.936a2.344 2.344 0 0 0-2.24 2.277 2.326 2.326 0 0 0 2.277 2.233 2.32 2.32 0 0 0 2.237-2.27 2.348 2.348 0 0 0-2.274-2.24Z"/></svg>
